src/img/icons/icon-paper-clip.svg

<svg width="512" height="512" viewBox="0 0 512 512" fill="none" xmlns="http://www.w3.org/2000/svg">
<path d="M158.63 512C149.161 512.003 139.706 511.237 130.36 509.71C99.0103 504.6 70.3603 491.24 47.6203 471.06C13.8003 441.11 -3.35967 399.44 0.540328 356.74C3.67033 322.43 20.3903 290.25 47.6203 266.14L314.27 30C336.14 10.66 365 0 395.62 0C426.24 0 455.09 10.66 477 30C508 57.46 519.56 98.1 507.13 136.07C501.29 153.93 490.26 170.4 475.23 183.71L423.28 229.71L260.26 374C244.91 387.59 227.59 396 210.15 398.43C199.974 399.875 189.604 399.069 179.772 396.069C169.941 393.07 160.887 387.95 153.25 381.07C137 366.69 128.06 347.32 128.06 326.52C128.06 305.72 137 286.39 153.25 272L318 126.15C322.97 121.796 329.461 119.587 336.055 120.004C342.649 120.422 348.809 123.433 353.19 128.379C357.57 133.325 359.815 139.804 359.433 146.4C359.05 152.996 356.073 159.173 351.15 163.58L186.39 309.44C181.02 314.2 178.06 320.28 178.06 326.56C178.06 332.84 181.06 338.92 186.39 343.68C201.17 356.76 219.79 343.09 227.11 336.61L390.11 192.31L442.11 146.31C450.126 139.426 456.174 130.541 459.64 120.56C465.85 101.56 459.96 81.71 443.87 67.47C417.75 44.33 373.6 44.33 347.48 67.47L80.7703 303.58C63.1103 319.21 52.3003 339.71 50.3303 361.28C47.9003 388 59.0003 414.33 80.7703 433.62C96.4703 447.52 116.4 456.77 138.41 460.36C174.41 466.23 211.21 456.24 236.75 433.62L452.1 242.93C457.07 238.576 463.561 236.367 470.155 236.784C476.749 237.202 482.909 240.213 487.29 245.159C491.67 250.105 493.915 256.584 493.533 263.18C493.15 269.776 490.173 275.953 485.25 280.36L269.9 471.05C240 497.5 199.89 512 158.63 512Z" fill="currentColor"/>
</svg>

<?xml version="1.0"?>
<svg xmlns="http://www.w3.org/2000/svg" viewBox="0 0 512 512" width="512" height="512"><g id="_10_Location" data-name="10 Location"><path d="M158.63,512a175.07,175.07,0,0,1-28.27-2.29c-31.35-5.11-60-18.47-82.74-38.65C13.8,441.11-3.36,399.44.54,356.74c3.13-34.31,19.85-66.49,47.08-90.6L314.27,30C336.14,10.66,365,0,395.62,0S455.09,10.66,477,30c31,27.46,42.56,68.1,30.13,106.07-5.84,17.86-16.87,34.33-31.9,47.64l-51.95,46L260.26,374c-15.35,13.59-32.67,22-50.11,24.43a70.26,70.26,0,0,1-56.9-17.36c-16.25-14.38-25.19-33.75-25.19-54.55S137,286.39,153.25,272L318,126.15a25,25,0,0,1,33.15,37.43L186.39,309.44c-5.37,4.76-8.33,10.84-8.33,17.12s3,12.36,8.33,17.12c14.78,13.08,33.4-.59,40.72-7.07l163-144.3,52-46a59.8,59.8,0,0,0,17.53-25.75c6.21-19,.32-38.85-15.77-53.09-26.12-23.14-70.27-23.14-96.39,0L80.77,303.58c-17.66,15.63-28.47,36.13-30.44,57.7C47.9,388,59,414.33,80.77,433.62c15.7,13.9,35.63,23.15,57.64,26.74,36,5.87,72.8-4.12,98.34-26.74L452.1,242.93a25,25,0,0,1,33.15,37.43L269.9,471.05C240,497.5,199.89,512,158.63,512Z"/></g></svg>
